X:16
T:Quick Step,2voices. JGi.016
S:Joshua Gibbons MS,1823,Tealby,Lincs.
M:2/4
L:1/8
Q:1/4=110
R:quick step
O:Tealby,Lincolnshire
Z:VMP/R.Greig, 2009
K:F
[V:1]|:f3g/f/|ecde|f3g|c’bge|f3g/2f/2|ecde|f3a|f2-f2:|
[V:2]|:A3B/A/|G2B2|A3f|ageG|A3B/A/|GGBG|A2c2|A4:|
[V:1]|:c’bg2|c’af2|gaba|agf2|c’bg2|c’af2|gaba|a2″DC”g2:|
[V:2]|:age2|fcA2|efgf|fcA2|age2|afA2|efgf|f2″DC”e2:|

